X:1
T:Fairy Dance, The
C:Nathaniel Gow
S:Peter Hardie's MSS, via Scottish Country Dance Book 3
Z:Nigel Gatherer
M:4/4
L:1/8
K:F
A2 AF A2 AF|A2 AF ECGE|A2 AF BAGF|1ECDE F2 FG:|]2ECDE FGAB|]
c2 cA d2 dc|BABG c2 cB|AGAF D2 BG|ECDE FGAB|
c2 cA d2 dc|BABG c2 cB|AGAF D2 BG|ECDE F2 z2|]